X:1
T:Easter Offerings
T:Easter Offerings
T:Jonathan E. Hall
T:Eliza Morgan Sherman, 1888
T:Public Domain Courtesy of the Cyber Hymnal™
T:Public Domain Courtesy of the Cyber Hymnal™
C:Jonathan E. Hall
Z:Public Domain
Z:Courtesy of the Cyber Hymnal™
%%score ( 1 2 ) ( 3 4 )
L:1/8
Q:1/4=100
M:3/4
K:Ab
V:1 treble 
V:2 treble 
V:3 bass 
V:4 bass 
V:1
 [CA][Ec] | [CE]2 [CA]2 [DF][FB] | (A2 G2) [EG][EA] | [GB]3 [Ac] [Gd][Ge] | (d2 c2) [CA][Ec] | %5
w: 1.~Ros- es|bring and lil- ies|sweet, * Now to|cast at Je- sus’|feet; * Ros- es|
w: 2.~Car- ols|sing, and sweet- est|praise * Bring to|Him these Eas- ter|days; * Gold- en|
w: 3.~Twine the|cy- press, wreathe the|bay; * Christ, our|king, a- rose to-|day; * Sing, my|
 [CE]2 [CA]2 [DF][FB] | (A2 G2) [EG][EA] | [GB]3 [Gd] [Ec][DB] | [CA]4 [Ee][Ec] | %9
w: for our of- fering|bring, * Un- to|Chrsit, our ris- en|king. Lil- ies|
w: gate, lift up your|head, * Christ is|ris- en from the|dead. And the|
w: soul, in joy- ous|strain, * Je- sus|died and rose a-|gain. So we’ll|
 [Ed]2 [EB]2 [Ec]A | [GB]4 [Ac][EA] | [EB]2 [EG]2 [=DA][DF] | E4 [CA][Ec] | [CE]2 [CA]2 [DF][FB] | %14
w: sweet as breath of|May, For the|res- ur- rec- tion|day; Ros- es|bring and lil- ies|
w: res- ur- rec- tion|day Floods the|place where Je- sus|lay; Car- ols|sing, and sweet- est|
w: rise and live al-|way, When shall|dawn our Eas- ter|day; wine the|cy- press, wreathe the|
 (A2 G2) [EG][EA] | [GB]3 [Gd] [Ec][DB] | [CA]4 ||[M:4/4]"^Refrain" [CA][DB] | %18
w: sweet, * Now to|cast at Je- sus’|feet.||
w: praise * Bring to|Him these Eas- ter|days.|Bring- ing|
w: bay; * Christ, our|king, a- rose to-|day.||
 [Ec]4 [CA]2 [Ac][Bd] | [ce]4 [Ac]2 [Ae][Af] | [Ae]2 [Ac]2 [EA]2 [Ac]2 | [GB]6 [CA][DB] | %22
w: ||||
w: ros- es, bring- ing|lil- ies, Now to|cast at Je- sus’|feet; Bring- ing|
w: ||||
 [Ec]4 [CA]2 [CA][CE] | [DF]4 !fermata![FA]2 [EG][DF] | [CE]2 [CA]2 [DB]3 [CA] | [CA]6 |] %26
w: ||||
w: ros- es, bring- ing|lil- ies, Now to|cast at Je- sus’|feet.|
w: ||||
V:2
 x2 | x6 | E4 x2 | x6 | E4 x2 | x6 | E4 x2 | x6 | x6 | x5 A | x6 | x6 | E4 x2 | x6 | E4 x2 | x6 | %16
 x4 ||[M:4/4] x2 | x8 | x8 | x8 | x8 | x8 | x8 | x8 | x6 |] %26
V:3
 [A,,A,][A,,A,] | [A,,A,]2 [A,,A,]2 [D,A,][B,,D] | (C2 B,2) [E,B,][E,C] | %3
w: ~ ~|~ ~ ~ ~|~ * ~ ~|
 [E,D]3 [E,E] [E,B,][E,B,] | (B,2 A,2) [A,,A,][A,,A,] | [A,,A,]2 [A,,A,]2 [D,A,][B,,D] | %6
w: ~ ~ ~ ~|~ * ~ ~|~ ~ ~ ~|
 (C2 B,2) [E,B,][E,C] | [E,D]3 [E,B,] [D,A,][E,G,] | [A,,A,]4 [A,C]A, | [E,B,]2 [E,G,]2 A,[A,C] | %10
w: ~ * ~ ~|~ ~ ~ ~|~ ~ ~|~ ~ ~ ~|
 [E,E]4 [A,E][A,C] | [E,D]2 [E,B,]2 [B,,B,][B,,A,] | [E,G,]4 [A,,A,][A,,A,] | %13
w: ~ ~ ~|~ ~ ~ ~|~ ~ ~|
 [A,,A,]2 [A,,A,]2 [D,A,][B,,D] | (C2 B,2) [E,B,][E,C] | [E,D]3 [E,B,] [E,A,][E,G,] | [A,,A,]4 || %17
w: ~ ~ ~ ~|~ * ~ ~|~ ~ ~ ~|~|
[M:4/4] z2 | [A,,A,][A,,A,] [A,,A,]2 [A,,A,]2 z2 | A,A, A,2 [A,E]2 [A,C][A,D] | %20
w: |Bring- ing ros- es,|bring- ing lil- ies, ~ ~|
 [A,C]2 [A,E]2 [A,C]2 [A,E]2 | [E,E]6 z2 | [A,,A,][A,,A,] [A,,A,]2 [A,,A,]2 z2 | %23
w: ~ ~ ~ ~|~|Bring- ing ros- es,|
 [D,A,][D,A,] [D,A,]2 [D,D]2 [D,A,][D,A,] | [E,A,]2 [E,A,]2 [E,G,]3 [A,,A,] | [A,,A,]6 |] %26
w: bring- ing lil- ies, * *|||
V:4
 x2 | x6 | E,4 x2 | x6 | A,,4 x2 | x6 | E,4 x2 | x6 | x5 A, | x4 A, x | x6 | x6 | x6 | x6 | %14
 E,4 x2 | x6 | x4 ||[M:4/4] x2 | x8 | A,A, A,2 x4 | x8 | x8 | x8 | x8 | x8 | x6 |] %26

